X:1
T:43 - Uma Família
T:Uma Família 
T:Música e letra por: André Ferreira 
T:Partitura por: Ana Mota André Ferreira Tito Silva 
T:www.psalterio.net/278
C:CRN 2018
%%score { ( 1 2 ) | ( 3 4 ) }
L:1/8
Q:1/4=120
M:4/4
K:E
V:1 treble nm="P1"
V:2 treble 
V:3 bass 
V:4 bass 
V:1
"E" GG G F/"A"F E3 z/ |"E" EE E E/"B"F G3 z/ |"E" GG B G/"A"BG3/2 FG |"B" AG/"A"FE/"E" E2"A" E2 z | %4
w: O teu in- te- rior _|sen- te se va- zi- o|Co- mo o In- ver- no, o teu|co- ra- ção é fri- o|
"E" GG G F/"A"F E3 E/ |"E" EE E E/"B"F G3 z/ |"E" GG B G/"A"BG3/2 FG |"B" AG/F"A"E/"E" E4 z | %8
w: Sen- tes te per- di- do sem|Nor- te e sem ra- zão|Pro- cu- ras a- ju- da mas nin-|guém te e- stende.a mão|
"C#m" cc c c/c B3 z/ |"F#m" AG A G/A B3"A" G/ | BB BB/cB3/2 GB |"B" cc/cB/ B2 E/E/GA | %12
w: Ten- ho u- ma noti- cia|pa- ra te con- tar _ Ex-|i- ste um ca- min- ho e tu|po- des lá che- gar Só tens de acei-|
S"E" B2- B/A/G/"A" A2 E/AA |"E" GF/EF/ G"B" F3/2 E/E/F/G |"E" B2- B/A/G/"A" A2 z/ AA | %15
w: tar _ _ _ _ o sa cri|fi cio que Je sus fez Irás _ co me|çar _ _ _ _ a tua|
"E" GF/EF/ G"B" F3/2 z/ G/G/F/E/ |"E" EFG"A" B4 G/F/ |"E" EFG"B" F4 E/E/ | %18
w: vi da ou _ tra vez tens u ma Fa|mí lia em nós que t'i|rá a ju dar e as|
"F#m" cB"G#m" G"C#m"B3/2"G#m" G2- G/E |"A" A/A/G/"B"FE/"E" E4"B" z!dacoda! | %20
w: sim to dos jun tos _ i|re mos ao céu che gar|
"E" GG G F/"A"F E3 B,/ |"E" EE E E/"B"F G3 z/ |"E" G/G/G B G/"A"BG3/2 FG | %23
w: Quan- do e- stás sozi- nho e.o|tem- po está nu- bla- do|po- des ter a cer- te- za que esta-|
"B" AG/"A"FE/"E" E2"A" E2 z/"E" B,/ | GG G F/"A"F E3 E/ |"E" EE E E/"B"F G3 z/ | %26
w: re- mos- ao teu la do Je-|sus tor- na.o teu di- a cin-|zen- to em.mui- tas co- res|
"E" G/G/G B G/"A"BG3/2 FG |"B" AG/"A"FE/"E" E2"A" E2 z |"E" G/G/G/G/ G F/"A"F E2 B,/B,/C/ | %29
w: So- mos seus- ins- tru- men tos so- mos|os Des- bra- va- do- res|A men- sa- gem do ad- ven- to a to- do|
"E" E/E/E/E/ E E/"B"F G3 z/ |"E" GG/G/ B G/"A"BG3/2 FG |"B" AG/"A"FE/"E""A" E4 z | %32
w: mun- do nes- ta ge- ra- ção _|Es- ta.é a no- ssa me- ta es- ta|é.a no- ssa mi- ssão|
"E" GG G F/"A"F E3 z/ |"E" EE/E/ E E/"B"F G3 z/ |"E" GG B G/"A"BG3/2 FG |"B" AG/"A"FE/"E" E2 E2 z | %36
w: O a- mor de Cris- to|é o que nos mo- ti- va|jun- ta te a nós _ o con-|vi- te a- qui fi- ca|
"C#m" cc c c/c B3 z/ |"F#m" AG A G/A B3 z/ |"A" BB BB/cB3/2 GB |"B" cc/cB/ B2 E/E/GA!D.S.! | %40
w: Ten- ho u- ma noti- cia|pa- ra te con- tar _|Tu não estas so- zi- nho so- mos|mui- tos a can- tar Só tens de.a cei|
O"E" z G G2 F/F/E/FG z/ |"E" z G G2 F/F/E/FE z/ |"E" z G G2 F/F/E/FG z/ |"E" z G G2 F/F/E/FE z/ | %44
w: na na na na na na na|na na na na na na na|na na na na na na na|na na na na na na na|
"E" z G G2"A" F/F/E/FG z/ |"E" z G G2"B" F/F/E/FE z/ |"E" z G G2"A" F/F/E/FG z/ | %47
w: na na na na na na na|na na na na na na na|na na na na na na na|
"B" AG/"A"FE/"E"E z4!fine! |] %48
w: na na na na na|
V:2
 EE E C/C B,3 x/ | B,B, B, B,/C E3 x/ | EE G E/GE3/2 B,E | FE/CB,/ B,2 B,2 x | EE E C/C B,3 B,/ | %5
 B,B, B, B,/C E3 x/ | EE G E/GE3/2 B,E | FE/CB,/ B,4 x | EE E E/E E3 x/ | EE EE/E E3 E/ | %10
 EE EE/FE3/2 CE | FE/FG/ F2 B,/B,/EF | E2- E/C/B,/ C2 C/EF | EC/B,C/ E D3/2 B,/B,/C/E | %14
 E2- E/C/B,/ C2 x/ EF | EC/B,C/ E D3/2 x/ E/E/C/B,/ | B,CE G4 E/B,/ | B,CE D4 E/E/ | %18
 AG EG3/2 E2- E/C | F/F/E/CB,/ B,4 x | EE E C/C B,3 B,/ | B,B, B, B,/C E3 x/ | %22
 E/E/E G E/GE3/2 B,E | FE/CB,/ B,2 B,2 x/ B,/ | EE E C/C B,3 B,/ | B,B, B, B,/C E3 z/ | %26
 E/E/E G E/GE3/2 B,E | FE/CB,/ B,2 B,2 x | E/E/E/E/ E C/C B,2 B,/B,/C/ | %29
 B,/B,/B,/B,/ B, B,/C E3 x/ | EE/E/ G E/GE3/2 B,E | FE/CB,/ B,4 z | EE E C/C B,3 x/ | %33
 B,B,/B,/ B, B,/C E3 x/ | EE G E/GE3/2 B,E | FE/CB,/ B,2 B,2 x | EE E E/E E3 z/ | EE EE/E E3 x/ | %38
 EE EE/FE3/2 CE | FE/FG/ F2 B,/B,/EF | x G G2"A" F/F/E/FG x/ | x G G2"B" F/F/E/FE x/ | %42
 x G G2"A" F/F/E/FG x/ | x G G2"B" F/F/E/FE x/ | x E E2 C/C/B,/CE x/ | x E E2 C/C/B,/CB, x/ | %46
 z E E2 C/C/B,/CE x/ | FE/CB,/B, x4 |] %48
V:3
 B,B, B, A,/A, G,3 z/ | G,G, G, G,/A, B,3 z/ | B,B, E C/EB,3/2 G,B, | CB,/A,G,/ G,2 G,2 z | %4
 B,B, B, A,/A, G,3 A,/ | G,G, G, G,/A, B,3 z/ | B,B, E C/EB,3/2 G,B, | CB,/A,G,/ G,4 z | %8
 A,A, A, A,/A, A,3 z/ | B,B, B, B,/B, B,3 B,/ | CC CC/EB,3/2 B,C | DC/DE/ D2 G,/G,/A,B, | %12
 B,2- B,/A,/B,/ A,2 A,/CC | B,G,/B,B,/ C B,3/2 G,/G,/A,/B, | B,2- B,/A,/B,/ A,2 z/ CC | %15
 B,G,/B,B,/ C B,3/2 z/ B,/B,/A,/G,/ | G,A,B, C4 C/G,/ | G,A,B, F,4 A,/A,/ | CC B,E3/2 B,2- B,/G, | %19
 F,/F,/E,/F,E,/ B,4 z | B,B, B, A,/A, G,3 G,/ | G,G, G, G,/A, B,3 z/ | B,/B,/B, E C/EB,3/2 G,B, | %23
 CB,/A,G,/ G,2 G,2 z/ G,/ | B,B, B, A,/A, G,3 A,/ | G,G, G, G,/A, B,3 z/ | %26
 B,/B,/B, E C/EB,3/2 G,B, | CB,/A,G,/ G,2 G,2 z | B,/B,/B,/B,/ B, A,/A, G,2 G,/G,/G,/ | %29
 G,/G,/G,/G,/ G, G,/A, B,3 z/ | B,B,/B,/ E C/EB,3/2 G,B, | CB,/A,G,/ G,4 z | B,B, B, A,/A, G,3 z/ | %33
 G,G,/G,/ G, G,/A, B,3 z/ | B,B, E C/EB,3/2 G,B, | CB,/A,G,/ G,2 G,2 z | A,A, A, A,/A, A,3 z/ | %37
 B,B, B, B,/B, B,3 z/ | CC CC/EB,3/2 B,C | DC/DE/ D2 G,/G,/A,B, | z G, G,2 F,/F,/E,/F,G, z/ | %41
 z G, G,2 F,/F,/E,/F,E, z/ | z B, B,2 A,/A,/G,/A,B, z/ | z B, B,2 A,/A,/G,/A,G, z/ | %44
 z B, B,2 A,/A,/G,/A,B, z/ | z B, B,2 A,/A,/G,/A,G, z/ | z B, B,2 A,/A,/G,/A,B, z/ | %47
 F,E,/F,E,/B, z4 |] %48
V:4
 E,E, E, B,,/E, E,3 x/ | E,E, E, B,,/E, E,3 x/ | E,E, B,, C,/E,E,3/2 B,,E, | %3
 A,,A,,/B,,B,,/ E,2 E,2 x | E,E, E, B,,/E, E,3 B,,/ | E,E, E, B,,/E, E,3 x/ | %6
 E,E, B,, C,/E,E,3/2 B,,E, | A,,A,,/B,,B,,/ E,4 x | F,F, F, F,/F, F,3 x/ | G,G, G, G,/G, G,3 G,/ | %10
 A,A, A,A,/A,E,3/2 F,A, | B,,B,,/B,,B,,/ B,,2 B,,/B,,/C,D, | E,2- E,/E,/E,/ A,,2 A,,/A,,B,, | %13
 E,E,/C,C,/ A,, B,,3/2 B,,/B,,/C,/B,, | E,2- E,/E,/E,/ A,,2 x/ A,,B,, | %15
 E,E,/C,C,/ A,, B,,3/2 x/ B,,/B,,/C,/E,/ | B,,C,E, A,,4 A,,/B,,/ | E,F,G, B,,4 E,/E,/ | %18
 A,A, G,C3/2 C,2- C,/C, | A,,/A,,/A,,/B,,B,,/ E,4 x | E,E, E, B,,/E, E,3 E,/ | %21
 E,E, E, B,,/E, E,3 x/ | E,/E,/E, B,, C,/E,E,3/2 B,,E, | A,,A,,/B,,B,,/ E,2 E,2 x/ E,/ | %24
 E,E, E, B,,/E, E,3 B,,/ | E,E, E, B,,/E, E,3 z/ | E,/E,/E, B,, C,/E,E,3/2 B,,E, | %27
 A,,A,,/B,,B,,/ E,2 E,2 x | E,/E,/E,/E,/ E, B,,/E, E,2 E,/E,/E,/ | E,/E,/E,/E,/ E, B,,/E, E,3 x/ | %30
 E,E,/E,/ B,, C,/E,E,3/2 B,,E, | A,,A,,/B,,B,,/ E,4 z | E,E, E, B,,/E, E,3 x/ | %33
 E,E,/E,/ E, B,,/E, E,3 x/ | E,E, B,, C,/E,E,3/2 B,,E, | A,,A,,/B,,B,,/ E,2 E,2 x | %36
 F,F, F, F,/F, F,3 z/ | G,G, G, G,/G, G,3 x/ | A,A, A,A,/A,E,3/2 F,A, | %39
 B,,B,,/B,,B,,/ B,,2 B,,/B,,/C,D, | x G, G,2 F,/F,/E,/F,G, x/ | x G, G,2 F,/F,/E,/F,E, x/ | %42
 x B, B,2 A,/A,/G,/A,B, x/ | x B, B,2 A,/A,/G,/A,G, x/ | x B, B,2 A,/A,/G,/A,B, x/ | %45
 x B, B,2 A,/A,/G,/A,G, x/ | z E, E,2 B,,/B,,/B,,/B,,C, x/ | A,,A,,/B,,B,,/E, x4 |] %48

